client/assets/images/customer-home/illustration--rocket.svg

<svg width="178" height="168" viewBox="0 0 178 168" fill="none" xmlns="http://www.w3.org/2000/svg">
<circle cx="93.0337" cy="82.4333" r="65.3738" fill="#E6F2E8"/>
<path d="M161.537 50.511C161.026 50.3377 160.941 50.0779 160.685 49.7315C160.515 49.4716 160.344 49.1252 160.174 48.7788C160.003 48.4323 159.918 48.1725 159.748 47.8261C159.662 47.4796 159.492 47.2198 159.662 46.7001L159.918 46.6135C160.429 46.7867 160.515 47.0466 160.77 47.393C160.941 47.6528 161.111 47.9993 161.282 48.3457C161.452 48.6922 161.537 48.952 161.708 49.2984C161.793 49.6449 161.964 49.9047 161.793 50.4244L161.537 50.511Z" fill="#F2D76B"/>
<path d="M158.895 49.385C159.066 48.8654 159.321 48.7788 159.662 48.5189C159.918 48.3457 160.259 48.1725 160.6 47.9993C160.941 47.8261 161.197 47.7395 161.537 47.5662C161.878 47.4796 162.134 47.3064 162.646 47.4796L162.731 47.7395C162.56 48.2591 162.305 48.3457 161.964 48.6056C161.708 48.7788 161.367 48.952 161.026 49.1252C160.685 49.2984 160.429 49.385 160.088 49.5583C159.747 49.6449 159.492 49.8181 158.98 49.6449L158.895 49.385Z" fill="#F2D76B"/>
<path d="M17.8903 71.1199L18.6574 69.6476C18.7426 69.3877 18.4869 69.1279 18.2312 69.2145L16.7822 70.0806L15.5037 68.8681C15.3332 68.6948 14.9923 68.8681 14.9923 69.1279L15.3332 70.8601L13.8843 71.6396C13.6285 71.8128 13.7138 72.1592 13.9695 72.1592L15.5889 72.3325L15.9299 74.1513C16.0151 74.4111 16.3561 74.4977 16.5265 74.2379L17.2084 72.5923L18.9983 72.8521C19.254 72.8521 19.4245 72.5057 19.254 72.3325L17.8903 71.1199Z" fill="#044b7a"/>
<path d="M62.6013 10.7574L63.1979 9.63145C63.2832 9.45823 63.1127 9.1984 62.857 9.37162L61.7489 9.97789L60.8114 9.11179C60.6409 8.93857 60.3852 9.11179 60.4704 9.28501L60.7261 10.5842L59.6181 11.1904C59.4476 11.277 59.4476 11.6235 59.7033 11.6235L60.8966 11.7101L61.1523 13.0958C61.1523 13.3557 61.4932 13.3557 61.5785 13.1825L62.0899 11.8833L63.4536 12.0565C63.7093 12.0565 63.7946 11.7967 63.6241 11.6235L62.6013 10.7574Z" fill="#F0C930"/>
<path d="M172.618 56.2273L173.385 54.6683C173.555 54.4085 173.215 54.1486 172.959 54.2353L171.425 55.1014L170.146 53.8888C169.89 53.7156 169.635 53.8888 169.635 54.1486L169.976 55.8808L168.527 56.7469C168.271 56.9202 168.356 57.2666 168.612 57.3532L170.231 57.5264L170.572 59.3452C170.657 59.6051 170.998 59.6917 171.169 59.4318L171.936 57.6996L173.726 57.9595C173.982 57.9595 174.152 57.613 173.982 57.4398L172.618 56.2273Z" fill="#8C8F94"/>
<path d="M133.24 4.4769L134.603 1.61878C134.859 1.09912 134.348 0.579458 133.836 0.925897L131.109 2.48487L128.722 0.319628C128.296 -0.026811 127.699 0.319628 127.785 0.839287L128.381 4.04385L125.654 5.60283C125.142 5.86266 125.313 6.55553 125.909 6.64214L128.893 6.90197L129.489 10.2798C129.574 10.7994 130.342 10.886 130.512 10.3664L131.876 7.24841L135.2 7.68146C135.711 7.76807 136.052 7.07519 135.626 6.72875L133.24 4.4769Z" fill="#044b7a"/>
<path d="M176.709 103.949C177.415 103.949 177.988 103.368 177.988 102.65C177.988 101.933 177.415 101.351 176.709 101.351C176.003 101.351 175.431 101.933 175.431 102.65C175.431 103.368 176.003 103.949 176.709 103.949Z" fill="#C475BD"/>
<path d="M1.48787 33.016C2.19398 33.016 2.76639 32.4344 2.76639 31.7169C2.76639 30.9994 2.19398 30.4177 1.48787 30.4177C0.781764 30.4177 0.209351 30.9994 0.209351 31.7169C0.209351 32.4344 0.781764 33.016 1.48787 33.016Z" fill="#C475BD"/>
<path d="M65.9904 127.577C66.0262 127.411 65.9753 127.239 65.8552 127.118L45.9332 107.196C45.758 107.021 45.4808 107.001 45.2818 107.148C39.1223 111.716 35.2859 116.159 32.8163 120.389C30.3464 124.619 29.2577 128.613 28.5646 132.257C28.3281 133.5 28.1363 134.712 27.9525 135.873C27.8682 136.405 27.7856 136.926 27.7011 137.436C27.4308 139.066 27.1397 140.582 26.7088 141.989C25.8534 144.783 24.4495 147.143 21.5525 149.032C21.3742 149.149 21.289 149.365 21.3404 149.572C21.3918 149.778 21.5683 149.93 21.7804 149.949C29.7627 150.675 34.3679 145.475 37.6987 140.744C38.2227 140 38.7231 139.255 39.1995 138.547C39.4782 138.132 39.7488 137.73 40.011 137.347C40.7299 136.297 41.395 135.379 42.0459 134.667C42.7007 133.951 43.3035 133.485 43.8854 133.283C44.4378 133.092 45.0143 133.123 45.6839 133.5C46.9688 134.223 47.4602 135.054 47.5348 135.881C47.6127 136.746 47.2481 137.732 46.5501 138.763C45.1566 140.82 42.6148 142.787 40.7909 143.813C40.5969 143.922 40.4984 144.146 40.5493 144.363C40.6002 144.58 40.7883 144.736 41.0106 144.748C57.8237 145.603 64.6739 133.681 65.9904 127.577Z" fill="#F7DCC6" stroke="#B32D2E" stroke-linecap="round" stroke-linejoin="round"/>
<path d="M61.7231 128.841C60.7345 131.477 57.3734 137.343 51.8375 139.715" stroke="#E68B28" stroke-linecap="round" stroke-linejoin="round"/>
<path d="M67.6854 130.056L67.2678 129.781C67.2021 129.881 67.1743 130.001 67.1895 130.12L67.1895 130.12L67.1895 130.12L67.1901 130.125L67.1927 130.148C67.1951 130.17 67.1986 130.205 67.2025 130.251C67.2103 130.343 67.2201 130.482 67.2266 130.664C67.2399 131.026 67.2406 131.556 67.1891 132.213C67.0862 133.527 66.775 135.346 65.941 137.352C64.2803 141.349 60.523 146.15 52.0544 149.186C51.8932 149.244 51.7727 149.38 51.7353 149.547C51.6978 149.714 51.7485 149.889 51.8696 150.01L61.4112 159.552C61.5108 159.651 61.6478 159.704 61.7885 159.698C71.183 159.25 80.0661 155.288 86.6759 148.597C96.2172 139.055 97.2109 125.937 88.7719 117.498C87.7476 116.473 86.6144 115.894 85.4155 115.685C84.2225 115.478 82.997 115.644 81.7883 116.056C79.3833 116.876 76.9678 118.7 74.8375 120.72C72.6987 122.749 70.8072 125.014 69.4529 126.767C68.7749 127.645 68.2298 128.396 67.8538 128.929C67.6657 129.196 67.5199 129.408 67.4207 129.554C67.3712 129.627 67.3332 129.683 67.3076 129.721L67.2783 129.765L67.2707 129.777L67.2687 129.78L67.2681 129.781C67.2679 129.781 67.2678 129.781 67.6854 130.056Z" fill="#e9f0f5" stroke="#787C82" stroke-linecap="round" stroke-linejoin="round"/>
<path d="M88.4183 117.851C80.7641 110.197 67.6854 130.056 67.6854 130.056C67.6854 130.056 67.9377 132.011 67.295 134.773C72.5639 133.823 85.0663 130.516 92.9251 124.887C92.0077 122.331 90.5088 119.942 88.4183 117.851Z" fill="#bbe0fa"/>
<path d="M43.3448 106.274L43.3448 106.274C43.4634 106.29 43.5834 106.262 43.6833 106.196L43.4083 105.779C43.6833 106.196 43.6834 106.196 43.6837 106.196L43.6845 106.195L43.6876 106.193L43.6991 106.186L43.743 106.156C43.7814 106.131 43.8377 106.093 43.9106 106.043C44.0564 105.944 44.2683 105.798 44.5349 105.61C45.0679 105.234 45.8196 104.689 46.6973 104.011C48.4507 102.657 50.7156 100.765 52.7438 98.6265C54.7641 96.4961 56.5881 94.0807 57.4085 91.6757C57.8208 90.4669 57.9863 89.2414 57.7789 88.0484C57.5705 86.8495 56.9909 85.7163 55.9667 84.692C47.5276 76.253 34.4095 77.2467 24.8673 86.788C18.1765 93.3978 14.2144 102.281 13.7668 111.675C13.7601 111.816 13.813 111.953 13.9126 112.053L23.4542 121.594C23.5753 121.715 23.75 121.766 23.9172 121.729C24.0843 121.691 24.2206 121.571 24.2784 121.41C27.3147 112.941 32.1156 109.184 36.1119 107.523C38.1187 106.689 39.9374 106.378 41.2517 106.275C41.9086 106.223 42.4382 106.224 42.8007 106.237C42.9819 106.244 43.1212 106.254 43.2135 106.261C43.2596 106.265 43.294 106.269 43.316 106.271L43.3397 106.274L43.3443 106.274L43.3444 106.274L43.3448 106.274Z" fill="#e9f0f5" stroke="#787C82" stroke-linecap="round" stroke-linejoin="round"/>
<path d="M149.047 24.9633C149.039 24.6888 148.81 24.4727 148.535 24.4793C119.676 25.1812 92.0434 35.8155 71.1273 56.7316L71.1268 56.732C57.6031 70.2901 47.8904 87.1722 42.967 105.678C42.9211 105.851 42.9705 106.034 43.0966 106.16L67.3386 130.402C67.4647 130.528 67.6484 130.578 67.8207 130.532C86.3267 125.608 103.209 115.896 116.767 102.372C138.266 80.9269 149.925 52.5491 149.047 24.9633Z" fill="#F6F7F7" stroke="#787C82" stroke-linecap="round" stroke-linejoin="round"/>
<path d="M116.414 102.018C102.918 115.48 86.1133 125.148 67.6922 130.049L63.5187 125.875C94.6119 121.526 126.617 87.1565 138.733 70.5157C133.34 81.9119 125.825 92.6307 116.414 102.018Z" fill="#DCDCDE"/>
<path d="M108.217 65.2398C112.103 69.1258 118.404 69.1258 122.29 65.2398C126.176 61.3538 126.176 55.0534 122.29 51.1674C118.404 47.2815 112.103 47.2815 108.217 51.1674C104.331 55.0534 104.331 61.3538 108.217 65.2398Z" fill="#DCDCDE" stroke="#646970" stroke-linecap="round" stroke-linejoin="round"/>
<path d="M121.936 51.5209C121.466 51.0508 120.948 50.6314 120.391 50.2697C121.574 52.084 122.097 54.25 121.873 56.4043C121.648 58.5586 120.69 60.5703 119.159 62.1019C117.627 63.6335 115.615 64.5918 113.461 64.8162C111.307 65.0406 109.141 64.5174 107.326 63.3343C108.044 64.4522 108.988 65.4063 110.099 66.1345C111.21 66.8626 112.462 67.3484 113.773 67.5603C115.084 67.7721 116.425 67.7052 117.709 67.3638C118.993 67.0225 120.19 66.4144 121.223 65.5793C122.255 64.7442 123.101 63.7007 123.703 62.517C124.305 61.3333 124.652 60.0359 124.719 58.7094C124.786 57.3829 124.573 56.0571 124.094 54.8185C123.614 53.5799 122.879 52.4563 121.936 51.5209V51.5209Z" fill="#A7AAAD"/>
<path d="M95.457 67.8501L105.607 77.9999" stroke="#3C434A" stroke-width="2" stroke-linecap="round" stroke-linejoin="round"/>
<path d="M87.4115 75.8953L97.5613 86.045" stroke="#3C434A" stroke-width="2" stroke-linecap="round" stroke-linejoin="round"/>
<path d="M79.3728 83.9343L89.5226 94.0841" stroke="#3C434A" stroke-width="2" stroke-linecap="round" stroke-linejoin="round"/>
<path d="M67.4097 100.05C67.2144 99.8547 66.8979 99.8547 66.7026 100.05L34.5477 132.205C34.3525 132.4 34.3525 132.717 34.5477 132.912L40.5453 138.91C40.7405 139.105 41.0571 139.105 41.2524 138.91L73.4073 106.755C73.6025 106.559 73.6025 106.243 73.4073 106.048L67.4097 100.05Z" fill="#e9f0f5" stroke="#787C82" stroke-linecap="round" stroke-linejoin="round"/>
<path d="M73.0536 106.401L71.4598 104.807L39.305 136.962L40.8987 138.555L73.0536 106.401Z" fill="#bbe0fa"/>
<line x1="91.1298" y1="4.51301" x2="63.3622" y2="32.2806" stroke="#DEB100" stroke-linecap="round"/>
<path d="M135.74 114.857L121.225 129.373M107.937 142.661L116.479 134.118" stroke="#DEB100" stroke-linecap="round"/>
<line x1="104.418" y1="3.5638" x2="92.786" y2="15.1957" stroke="#DEB100" stroke-linecap="round"/>
<line x1="117.706" y1="145.266" x2="106.074" y2="156.898" stroke="#DEB100" stroke-linecap="round"/>
<line x1="108.215" y1="13.0553" x2="92.786" y2="28.4838" stroke="#DEB100" stroke-linecap="round"/>
<line x1="135.74" y1="136.724" x2="120.312" y2="152.152" stroke="#DEB100" stroke-linecap="round"/>
</svg>

<svg width="178" height="168" fill="none" xmlns="http://www.w3.org/2000/svg"><circle cx="93.034" cy="82.433" r="65.374" fill="#E6F2E8"/><path d="M161.537 50.511c-.511-.173-.596-.433-.852-.78-.17-.26-.341-.606-.511-.952-.171-.347-.256-.607-.426-.953-.086-.346-.256-.606-.086-1.126l.256-.087c.511.174.597.434.852.78.171.26.341.606.512.953.17.346.255.606.426.952.085.347.256.607.085 1.126l-.256.087z" fill="#F2D76B"/><path d="M158.895 49.385c.171-.52.426-.606.767-.866.256-.173.597-.346.938-.52.341-.173.597-.26.937-.433.341-.086.597-.26 1.109-.086l.085.26c-.171.52-.426.606-.767.866-.256.173-.597.346-.938.52-.341.172-.597.259-.938.432-.341.087-.596.26-1.108.087l-.085-.26z" fill="#F2D76B"/><path d="M17.89 71.12l.767-1.472c.086-.26-.17-.52-.426-.433l-1.449.866-1.278-1.213c-.17-.173-.512 0-.512.26l.341 1.732-1.449.78c-.255.173-.17.52.085.52l1.62.172.34 1.82c.086.26.427.346.597.086l.682-1.646 1.79.26c.256 0 .426-.346.256-.52L17.89 71.12z" fill="#044b7a"/><path d="M62.601 10.757l.597-1.126c.085-.173-.085-.433-.341-.26l-1.108.607-.938-.866c-.17-.173-.426 0-.34.173l.255 1.3-1.108.605c-.17.087-.17.434.085.434l1.194.086.255 1.386c0 .26.341.26.426.086l.512-1.299 1.364.174c.255 0 .34-.26.17-.434l-1.023-.866z" fill="#F0C930"/><path d="M172.618 56.227l.767-1.559c.17-.26-.17-.52-.426-.433l-1.534.866-1.279-1.212c-.256-.173-.511 0-.511.26l.341 1.732-1.449.866c-.256.173-.171.52.085.606l1.619.173.341 1.82c.085.26.426.346.597.086l.767-1.732 1.79.26c.256 0 .426-.347.256-.52l-1.364-1.213z" fill="#8C8F94"/><path d="M133.24 4.477l1.363-2.858c.256-.52-.255-1.04-.767-.693l-2.727 1.559L128.722.32c-.426-.347-1.023 0-.937.52l.596 3.204-2.727 1.559c-.512.26-.341.953.255 1.04l2.984.259.596 3.378c.085.52.853.606 1.023.086l1.364-3.118 3.324.433c.511.087.852-.606.426-.952l-2.386-2.252z" fill="#044b7a"/><path d="M176.709 103.949c.706 0 1.279-.581 1.279-1.299a1.29 1.29 0 00-1.279-1.299c-.706 0-1.278.582-1.278 1.299 0 .718.572 1.299 1.278 1.299zM1.488 33.016c.706 0 1.278-.582 1.278-1.3 0-.717-.572-1.298-1.278-1.298-.706 0-1.279.581-1.279 1.299 0 .717.573 1.299 1.279 1.299z" fill="#C475BD"/><path d="M65.99 127.577a.5.5 0 00-.135-.459l-19.922-19.922a.501.501 0 00-.651-.048c-6.16 4.568-9.996 9.011-12.466 13.241-2.47 4.23-3.558 8.224-4.251 11.868-.237 1.243-.429 2.455-.613 3.616a226.3 226.3 0 01-.25 1.563c-.271 1.63-.562 3.146-.993 4.553-.856 2.794-2.26 5.154-5.157 7.043a.501.501 0 00.228.917c7.983.726 12.588-4.474 15.919-9.205.524-.744 1.024-1.489 1.5-2.197.28-.415.55-.817.812-1.2.719-1.05 1.384-1.968 2.035-2.68.655-.716 1.258-1.182 1.84-1.384.552-.191 1.128-.16 1.798.217 1.285.723 1.776 1.554 1.85 2.381.079.865-.286 1.851-.984 2.882-1.393 2.057-3.935 4.024-5.76 5.05a.5.5 0 00.22.935c16.814.855 23.664-11.067 24.98-17.171z" fill="#F7DCC6" stroke="#B32D2E" stroke-linecap="round" stroke-linejoin="round"/><path d="M61.723 128.841c-.989 2.636-4.35 8.502-9.886 10.874" stroke="#E68B28" stroke-linecap="round" stroke-linejoin="round"/><path d="M67.685 130.056l-.417-.275a.501.501 0 00-.079.339h0l.001.005.003.023.01.103c.007.092.017.231.024.413.013.362.014.892-.038 1.549a16.9 16.9 0 01-1.248 5.139c-1.66 3.997-5.418 8.798-13.887 11.834a.5.5 0 00-.184.824l9.541 9.542c.1.099.237.152.377.146a37.493 37.493 0 0024.888-11.101c9.541-9.542 10.535-22.66 2.096-31.099-1.024-1.025-2.158-1.604-3.357-1.813-1.193-.207-2.418-.041-3.627.371-2.405.82-4.82 2.644-6.95 4.664-2.14 2.029-4.03 4.294-5.385 6.047a62.997 62.997 0 00-1.6 2.162 45.4 45.4 0 00-.432.625l-.113.167-.03.044-.007.012-.002.003v.001l.416.275z" fill="#e9f0f5" stroke="#787C82" stroke-linecap="round" stroke-linejoin="round"/><path d="M88.418 117.851c-7.654-7.654-20.733 12.205-20.733 12.205s.253 1.955-.39 4.717c5.269-.95 17.771-4.257 25.63-9.886-.917-2.556-2.416-4.945-4.507-7.036z" fill="#bbe0fa"/><path d="M43.345 106.274h0a.494.494 0 00.338-.078l-.275-.417.276.417v-.001l.004-.002.011-.007.044-.03.168-.113a62.624 62.624 0 002.787-2.032c1.753-1.354 4.018-3.246 6.046-5.385 2.02-2.13 3.844-4.545 4.664-6.95.413-1.21.578-2.435.37-3.628-.207-1.198-.787-2.332-1.811-3.356-8.44-8.439-21.557-7.445-31.1 2.096a37.492 37.492 0 00-11.1 24.887.502.502 0 00.146.378l9.541 9.541a.502.502 0 00.824-.184c3.037-8.469 7.838-12.226 11.834-13.887a16.91 16.91 0 015.14-1.248 13.582 13.582 0 011.549-.038c.18.007.32.017.413.024l.102.01.024.003h.004z" fill="#e9f0f5" stroke="#787C82" stroke-linecap="round" stroke-linejoin="round"/><path d="M149.047 24.963a.5.5 0 00-.512-.484c-28.859.702-56.492 11.337-77.408 32.253h0a108.986 108.986 0 00-28.16 48.946.5.5 0 00.13.482l24.242 24.242a.5.5 0 00.482.13 108.989 108.989 0 0048.946-28.16c21.499-21.445 33.158-49.823 32.28-77.409z" fill="#F6F7F7" stroke="#787C82" stroke-linecap="round" stroke-linejoin="round"/><path d="M116.414 102.018a108.486 108.486 0 01-48.722 28.031l-4.173-4.174c31.093-4.349 63.098-38.719 75.214-55.36-5.393 11.397-12.908 22.116-22.319 31.503z" fill="#DCDCDE"/><path d="M108.217 65.24c3.886 3.886 10.187 3.886 14.073 0 3.886-3.886 3.886-10.187 0-14.073-3.886-3.886-10.187-3.886-14.073 0-3.886 3.886-3.886 10.187 0 14.073z" fill="#DCDCDE" stroke="#646970" stroke-linecap="round" stroke-linejoin="round"/><path d="M121.936 51.52c-.47-.47-.988-.889-1.545-1.25a9.443 9.443 0 01-1.232 11.832 9.444 9.444 0 01-11.833 1.232 9.457 9.457 0 006.447 4.226 9.45 9.45 0 008.163-16.04z" fill="#A7AAAD"/><path d="M95.457 67.85L105.607 78M87.412 75.895l10.15 10.15M79.373 83.934l10.15 10.15" stroke="#3C434A" stroke-width="2" stroke-linecap="round" stroke-linejoin="round"/><path d="M67.41 100.05a.5.5 0 00-.707 0l-32.155 32.155a.5.5 0 000 .707l5.997 5.998a.5.5 0 00.707 0l32.155-32.155a.5.5 0 000-.707l-5.997-5.998z" fill="#e9f0f5" stroke="#787C82" stroke-linecap="round" stroke-linejoin="round"/><path d="M73.054 106.401l-1.594-1.594-32.155 32.155 1.594 1.593 32.155-32.154z" fill="#bbe0fa"/><path stroke="#DEB100" stroke-linecap="round" d="M91.13 4.513L63.362 32.281M135.74 114.857l-14.515 14.516m-13.288 13.288l8.542-8.543M104.418 3.564L92.786 15.196M117.706 145.266l-11.632 11.632M108.215 13.055L92.786 28.484M135.74 136.724l-15.428 15.428"/></svg>
